img/home/icons/icon-7.svg

<svg height="71" viewBox="0 0 59 71" width="59" xmlns="http://www.w3.org/2000/svg" xmlns:xlink="http://www.w3.org/1999/xlink"><mask id="a" fill="#fff"><path d="m0 .11773418h58.4360508v69.98353162h-58.4360508z" fill="#fff" fill-rule="evenodd"/></mask><g fill="#ff5722" fill-rule="evenodd"><path d="m16.5937954 33.7937532h-3.9166923c-1.4632 0-2.6522769 1.1782405-2.6522769 2.6261012 0 1.4469621 1.1890769 2.6243038 2.6522769 2.6243038h3.9166923c1.4622923 0 2.6522769-1.1773417 2.6522769-2.6243038 0-1.4478607-1.1899846-2.6261012-2.6522769-2.6261012"/><path d="m16.5937954 45.9627038h-3.9166923c-1.4632 0-2.6522769 1.1782405-2.6522769 2.6261013 0 1.4478607 1.1890769 2.6261012 2.6522769 2.6261012h3.9166923c1.4622923 0 2.6522769-1.1782405 2.6522769-2.6261012 0-1.4478608-1.1899846-2.6261013-2.6522769-2.6261013"/><path d="m16.5937954 21.6222861h-3.9166923c-1.4632 0-2.6522769 1.1791392-2.6522769 2.627 0 1.446962 1.1890769 2.6252025 2.6522769 2.6252025h3.9166923c1.4622923 0 2.6522769-1.1782405 2.6522769-2.6252025 0-1.4478608-1.1899846-2.627-2.6522769-2.627"/><path d="m45.2436508 15.1880684v40.9040886c0 .5059873-.2024154.9850126-.5682154 1.349-.3694308.364886-.8532308.5662025-1.3642616.5662025h-36.08167688c-.51375384 0-.99755384-.1986203-1.35790769-.5563165-.36761538-.3657848-.57093846-.8493038-.57093846-1.358886v-40.9040886c0-.514076.20241538-.997595.56912308-1.3615823.36216923-.358595.84415384-.5563165 1.35972307-.5563165h36.08167688c.4747231 0 .9249385.1707595 1.2798462.4826203l.0826.0817848c.3676154.3648861.5700308.8466076.5700308 1.3534937zm-35.95641542-7.17010131v-1.7408481c.05264616-.2076076.18426154-.40263291.37215385-.55541772.28410769-.22827849.67804617-.35410127 1.10829227-.35410127h29.0216462c.4302461 0 .8223692.12582278 1.1092.3576962.1842615.14739241.3104308.33432912.3594461.53025317v1.76241772zm31.97073842 55.23710131v.6884303c-.0517384.2022152-.1824461.3936456-.3721538.5464304-.2850154.2318734-.6744154.3594937-1.0964923.3594937h-29.0216462c-.4266153 0-.81601535-.1267215-1.10012304-.358595-.14069231-.1123417-.31406154-.2992784-.38032308-.564405v-.6713544zm9.2893231-26.0965443h2.5842v-4.2015823h-2.5842zm5.2373846-9.4537849h-5.2364769v-12.5166708c0-1.907114-.7542923-3.7054811-2.1230923-5.0643671l-.6471846-.63181016-.0408462.04044304c-.3667077-.28310127-.7597384-.5311519-1.1745538-.73965823v-2.80135443l-.0190615-.22468355c-.1878924-1.60244303-1.0066308-3.0610886-2.3055385-4.10991139-1.2371846-.99220253-2.8165692-1.53953164-4.4486-1.53953164h-29.0216462c-1.63384612 0-3.21232304.54643038-4.44496919 1.53773417-1.29618462 1.04432912-2.11855385 2.49668355-2.31643077 4.08205064l-.02269231 3.04940506c-.68530769.34331646-1.3098.79358228-1.86530769 1.34270889-1.36607692 1.3570886-2.11855385 3.1536582-2.11855385 5.0589747v40.9040886c0 1.9035189.75247693 3.6991898 2.11855385 5.0571772.5546.5482278 1.17909231.9975949 1.86530769 1.3400126v1.7462405l.02178462.2210886c.19878461 1.5952532 1.02115384 3.0503038 2.31824615 4.1000254 1.23355385.9957974 2.81203077 1.544924 4.4440615 1.544924h29.0216462c1.6392923 0 3.2204923-.550924 4.4522308-1.548519 1.2961846-1.047924 2.1140153-2.5101645 2.3028153-4.1224936l.0181539-1.9412659c.6862154-.3424177 1.3098-.7890886 1.8616769-1.3346202 1.3697077-1.3552912 2.124-3.1527595 2.124-5.0625696v-13.6814304h5.2364769c1.4622923 0 2.6513693-1.1782405 2.6513693-2.6261013v-9.4537848c0-1.4487595-1.189077-2.6261013-2.6513693-2.6261013z" mask="url(#a)" transform="translate(0 .78109)"/><path d="m27.2316769 33.7937532h-3.9176c-1.4622923 0-2.6513692 1.1782405-2.6513692 2.6261012 0 1.4469621 1.1890769 2.6243038 2.6513692 2.6243038h3.9176c1.4613846 0 2.6513693-1.1773417 2.6513693-2.6243038 0-1.4478607-1.1899847-2.6261012-2.6513693-2.6261012"/><path d="m27.2316769 45.9627038h-3.9176c-1.4622923 0-2.6513692 1.1782405-2.6513692 2.6261013 0 1.4478607 1.1890769 2.6261012 2.6513692 2.6261012h3.9176c1.4613846 0 2.6513693-1.1782405 2.6513693-2.6261012 0-1.4478608-1.1899847-2.6261013-2.6513693-2.6261013"/><path d="m37.8686508 45.9627038h-3.9176c-1.4632 0-2.652277 1.1782405-2.652277 2.6261013 0 1.4478607 1.189077 2.6261012 2.652277 2.6261012h3.9176c1.4613846 0 2.6513692-1.1782405 2.6513692-2.6261012 0-1.4478608-1.1899846-2.6261013-2.6513692-2.6261013"/><path d="m37.8686508 33.7937532h-3.9176c-1.4632 0-2.652277 1.1782405-2.652277 2.6261012 0 1.4469621 1.189077 2.6243038 2.652277 2.6243038h3.9176c1.4613846 0 2.6513692-1.1773417 2.6513692-2.6243038 0-1.4478607-1.1899846-2.6261012-2.6513692-2.6261012"/><path d="m37.8686508 21.6222861h-3.9176c-1.4632 0-2.652277 1.1791392-2.652277 2.627 0 1.446962 1.189077 2.6252025 2.652277 2.6252025h3.9176c1.4613846 0 2.6513692-1.1782405 2.6513692-2.6252025 0-1.4478608-1.1899846-2.627-2.6513692-2.627"/><path d="m27.2316769 21.6222861h-3.9176c-1.4622923 0-2.6513692 1.1791392-2.6513692 2.627 0 1.446962 1.1890769 2.6252025 2.6513692 2.6252025h3.9176c1.4613846 0 2.6513693-1.1782405 2.6513693-2.6252025 0-1.4478608-1.1899847-2.627-2.6513693-2.627"/></g></svg>

<?xml version="1.0" encoding="UTF-8"?>
<svg width="59px" height="71px" viewBox="0 0 59 71" version="1.1" xmlns="http://www.w3.org/2000/svg" xmlns:xlink="http://www.w3.org/1999/xlink">
    <!-- Generator: Sketch 51.3 (57544) - http://www.bohemiancoding.com/sketch -->
    <title>icon-7</title>
    <desc>Created with Sketch.</desc>
    <defs>
        <polygon id="path-1" points="0 0.117734177 58.4360508 0.117734177 58.4360508 70.1012658 0 70.1012658"></polygon>
    </defs>
    <g id="Home-&amp;-Quote" stroke="none" stroke-width="1" fill="none" fill-rule="evenodd">
        <g id="TT-Home-01" transform="translate(-844.000000, -5253.000000)">
            <g id="icon-7" transform="translate(844.000000, 5253.000000)">
                <path d="M16.5937954,33.7937532 L12.6771031,33.7937532 C11.2139031,33.7937532 10.0248262,34.9719937 10.0248262,36.4198544 C10.0248262,37.8668165 11.2139031,39.0441582 12.6771031,39.0441582 L16.5937954,39.0441582 C18.0560877,39.0441582 19.2460723,37.8668165 19.2460723,36.4198544 C19.2460723,34.9719937 18.0560877,33.7937532 16.5937954,33.7937532" id="Fill-1" fill="#FF5722"></path>
                <path d="M16.5937954,45.9627038 L12.6771031,45.9627038 C11.2139031,45.9627038 10.0248262,47.1409443 10.0248262,48.5888051 C10.0248262,50.0366658 11.2139031,51.2149063 12.6771031,51.2149063 L16.5937954,51.2149063 C18.0560877,51.2149063 19.2460723,50.0366658 19.2460723,48.5888051 C19.2460723,47.1409443 18.0560877,45.9627038 16.5937954,45.9627038" id="Fill-3" fill="#FF5722"></path>
                <path d="M16.5937954,21.6222861 L12.6771031,21.6222861 C11.2139031,21.6222861 10.0248262,22.8014253 10.0248262,24.2492861 C10.0248262,25.6962481 11.2139031,26.8744886 12.6771031,26.8744886 L16.5937954,26.8744886 C18.0560877,26.8744886 19.2460723,25.6962481 19.2460723,24.2492861 C19.2460723,22.8014253 18.0560877,21.6222861 16.5937954,21.6222861" id="Fill-5" fill="#FF5722"></path>
                <g id="Group-9" transform="translate(0.000000, 0.781090)">
                    <mask id="mask-2" fill="white">
                        <use xlink:href="#path-1"></use>
                    </mask>
                    <g id="Clip-8"></g>
                    <path d="M45.2436508,15.1880684 L45.2436508,56.092157 C45.2436508,56.5981443 45.0412354,57.0771696 44.6754354,57.441157 C44.3060046,57.806043 43.8222046,58.0073595 43.3111738,58.0073595 L7.22949692,58.0073595 C6.71574308,58.0073595 6.23194308,57.8087392 5.87158923,57.451043 C5.50397385,57.0852582 5.30065077,56.6017392 5.30065077,56.092157 L5.30065077,15.1880684 C5.30065077,14.6739924 5.50306615,14.1904734 5.86977385,13.8264861 C6.23194308,13.4678911 6.71392769,13.2701696 7.22949692,13.2701696 L43.3111738,13.2701696 C43.7858969,13.2701696 44.2361123,13.4409291 44.59102,13.7527899 L44.67362,13.8345747 C45.0412354,14.1994608 45.2436508,14.6811823 45.2436508,15.1880684 Z M9.28723538,8.01796709 L9.28723538,6.27711899 C9.33988154,6.06951139 9.47149692,5.87448608 9.65938923,5.72170127 C9.94349692,5.49342278 10.3374354,5.3676 10.7676815,5.3676 L39.7893277,5.3676 C40.2195738,5.3676 40.6116969,5.49342278 40.8985277,5.7252962 C41.0827892,5.87268861 41.2089585,6.05962532 41.2579738,6.25554937 L41.2579738,8.01796709 L9.28723538,8.01796709 Z M41.2579738,63.2550684 L41.2579738,63.9434987 C41.2062354,64.1457139 41.0755277,64.3371443 40.88582,64.4899291 C40.6008046,64.7218025 40.2114046,64.8494228 39.7893277,64.8494228 L10.7676815,64.8494228 C10.3410662,64.8494228 9.95166615,64.7227013 9.66755846,64.4908278 C9.52686615,64.3784861 9.35349692,64.1915494 9.28723538,63.9264228 L9.28723538,63.2550684 L41.2579738,63.2550684 Z M50.5472969,37.1585241 L53.1314969,37.1585241 L53.1314969,32.9569418 L50.5472969,32.9569418 L50.5472969,37.1585241 Z M55.7846815,27.7047392 L50.5482046,27.7047392 L50.5482046,15.1880684 C50.5482046,13.2809544 49.7939123,11.4825873 48.4251123,10.1237013 L47.7779277,9.49189114 L47.7370815,9.53233418 C47.3703738,9.24923291 46.9773431,9.00118228 46.5625277,8.79267595 L46.5625277,5.99132152 L46.5434662,5.76663797 C46.3555738,4.16419494 45.5368354,2.70554937 44.2379277,1.65672658 C43.0007431,0.664524051 41.4213585,0.117194937 39.7893277,0.117194937 L10.7676815,0.117194937 C9.13383538,0.117194937 7.55535846,0.663625316 6.32271231,1.65492911 C5.02652769,2.69925823 4.20415846,4.15161266 4.00628154,5.73697975 L3.98358923,8.78638481 C3.29828154,9.12970127 2.67378923,9.57996709 2.11828154,10.1290937 C0.752204615,11.4861823 -0.000272307692,13.2827519 -0.000272307692,15.1880684 L-0.000272307692,56.092157 C-0.000272307692,57.9956759 0.752204615,59.7913468 2.11828154,61.1493342 C2.67288154,61.697562 3.29737385,62.1469291 3.98358923,62.4893468 L3.98358923,64.2355873 L4.00537385,64.4566759 C4.20415846,66.0519291 5.02652769,67.5069797 6.32362,68.5567013 C7.55717385,69.5524987 9.13565077,70.1016253 10.7676815,70.1016253 L39.7893277,70.1016253 C41.42862,70.1016253 43.00982,69.5507013 44.2415585,68.5531063 C45.5377431,67.5051823 46.3555738,66.0429418 46.5443738,64.4306127 L46.5625277,62.4893468 C47.2487431,62.1469291 47.8723277,61.7002582 48.4242046,61.1547266 C49.7939123,59.7994354 50.5482046,58.0019671 50.5482046,56.092157 L50.5482046,42.4107266 L55.7846815,42.4107266 C57.2469738,42.4107266 58.4360508,41.2324861 58.4360508,39.7846253 L58.4360508,30.3308405 C58.4360508,28.882081 57.2469738,27.7047392 55.7846815,27.7047392 Z" id="Fill-7" fill="#FF5722" mask="url(#mask-2)"></path>
                </g>
                <path d="M27.2316769,33.7937532 L23.3140769,33.7937532 C21.8517846,33.7937532 20.6627077,34.9719937 20.6627077,36.4198544 C20.6627077,37.8668165 21.8517846,39.0441582 23.3140769,39.0441582 L27.2316769,39.0441582 C28.6930615,39.0441582 29.8830462,37.8668165 29.8830462,36.4198544 C29.8830462,34.9719937 28.6930615,33.7937532 27.2316769,33.7937532" id="Fill-10" fill="#FF5722"></path>
                <path d="M27.2316769,45.9627038 L23.3140769,45.9627038 C21.8517846,45.9627038 20.6627077,47.1409443 20.6627077,48.5888051 C20.6627077,50.0366658 21.8517846,51.2149063 23.3140769,51.2149063 L27.2316769,51.2149063 C28.6930615,51.2149063 29.8830462,50.0366658 29.8830462,48.5888051 C29.8830462,47.1409443 28.6930615,45.9627038 27.2316769,45.9627038" id="Fill-12" fill="#FF5722"></path>
                <path d="M37.8686508,45.9627038 L33.9510508,45.9627038 C32.4878508,45.9627038 31.2987738,47.1409443 31.2987738,48.5888051 C31.2987738,50.0366658 32.4878508,51.2149063 33.9510508,51.2149063 L37.8686508,51.2149063 C39.3300354,51.2149063 40.52002,50.0366658 40.52002,48.5888051 C40.52002,47.1409443 39.3300354,45.9627038 37.8686508,45.9627038" id="Fill-14" fill="#FF5722"></path>
                <path d="M37.8686508,33.7937532 L33.9510508,33.7937532 C32.4878508,33.7937532 31.2987738,34.9719937 31.2987738,36.4198544 C31.2987738,37.8668165 32.4878508,39.0441582 33.9510508,39.0441582 L37.8686508,39.0441582 C39.3300354,39.0441582 40.52002,37.8668165 40.52002,36.4198544 C40.52002,34.9719937 39.3300354,33.7937532 37.8686508,33.7937532" id="Fill-16" fill="#FF5722"></path>
                <path d="M37.8686508,21.6222861 L33.9510508,21.6222861 C32.4878508,21.6222861 31.2987738,22.8014253 31.2987738,24.2492861 C31.2987738,25.6962481 32.4878508,26.8744886 33.9510508,26.8744886 L37.8686508,26.8744886 C39.3300354,26.8744886 40.52002,25.6962481 40.52002,24.2492861 C40.52002,22.8014253 39.3300354,21.6222861 37.8686508,21.6222861" id="Fill-18" fill="#FF5722"></path>
                <path d="M27.2316769,21.6222861 L23.3140769,21.6222861 C21.8517846,21.6222861 20.6627077,22.8014253 20.6627077,24.2492861 C20.6627077,25.6962481 21.8517846,26.8744886 23.3140769,26.8744886 L27.2316769,26.8744886 C28.6930615,26.8744886 29.8830462,25.6962481 29.8830462,24.2492861 C29.8830462,22.8014253 28.6930615,21.6222861 27.2316769,21.6222861" id="Fill-20" fill="#FF5722"></path>
            </g>
        </g>
    </g>
</svg>
